T: Ellen O'Leary's
M: 6/8
L: 1/8
K: Dmaj
AG|: FDD EFG| Adc A2G| FDD GEE| FDD EDE|
FDD EFG| Adc A2G|FDD GEE|1 FDD  D2G:|2 FDD D2 ||
g| fed edc| Adc d2e| fed edc | ABA  A2g|
[1 fed edc |Adc A2G|FDD GEE | FDD D2:|
[2 e fagf edc | Adc2e| FDD GEE | EDD D||
